src/images/inline-svgs/ontario-icon-checkmark-large.inline.svg

<svg viewBox="0 0 143 113" fill="none" xmlns="http://www.w3.org/2000/svg">
<path d="M123.74 0.00838362C118.89 0.139591 114.28 2.15104 110.885 5.61785L48.363 68.1398L31.6514 53.4149C29.8252 51.6615 27.6619 50.2971 25.2927 49.4046C22.9235 48.512 20.3978 48.1099 17.8685 48.2225C15.3393 48.3351 12.8592 48.9601 10.5787 50.0597C8.29819 51.1592 6.26469 52.7102 4.60146 54.6189C2.93823 56.5277 1.67991 58.7545 0.902777 61.164C0.125641 63.5735 -0.154128 66.1156 0.080429 68.6364C0.314986 71.1573 1.05898 73.6043 2.26732 75.829C3.47567 78.0538 5.12318 80.0102 7.11002 81.5793L37.0272 107.757C40.59 110.867 45.1991 112.512 49.9263 112.361C54.6535 112.209 59.1476 110.271 62.5035 106.939L137.296 32.1457C140.009 29.5233 141.866 26.1415 142.621 22.4446C143.377 18.7478 142.996 14.9087 141.53 11.432C140.063 7.9554 137.579 5.00377 134.404 2.9649C131.229 0.926038 127.512 -0.104567 123.74 0.00838362Z" fill="white"/>
</svg>

<svg xmlns="http://www.w3.org/2000/svg" viewBox="0 0 143 113" fill="none"><path d="M123.74.008a18.7 18.7 0 0 0-12.855 5.609L48.363 68.14 31.65 53.415a18.7 18.7 0 0 0-13.783-5.192 18.7 18.7 0 0 0-13.267 6.396 18.7 18.7 0 0 0-3.699 6.545 18.7 18.7 0 0 0-.822 7.472 18.7 18.7 0 0 0 7.03 12.943l29.917 26.178c3.563 3.1 8.172 4.755 12.9 4.604s9.22-2.1 12.577-5.422l74.792-74.793c2.713-2.622 4.57-6.004 5.325-9.7a18.7 18.7 0 0 0-1.091-11.013c-1.467-3.477-3.95-6.428-7.126-8.467A18.7 18.7 0 0 0 123.74.008z" fill="#fff"/></svg>
